Numix-GalliumOS/48/categories/applications-multimedia.svg

<?xml version="1.0" encoding="UTF-8" standalone="no"?>
<svg
   xmlns:dc="http://purl.org/dc/elements/1.1/"
   xmlns:cc="http://creativecommons.org/ns#"
   xmlns:rdf="http://www.w3.org/1999/02/22-rdf-syntax-ns#"
   xmlns:svg="http://www.w3.org/2000/svg"
   xmlns="http://www.w3.org/2000/svg"
   xmlns:sodipodi="http://sodipodi.sourceforge.net/DTD/sodipodi-0.dtd"
   xmlns:inkscape="http://www.inkscape.org/namespaces/inkscape"
   viewBox="0 0 48 48"
   id="svg2"
   version="1.1"
   inkscape:version="0.91 r"
   sodipodi:docname="xfce-multimedia.svg">
  <metadata
     id="metadata12">
    <rdf:RDF>
      <cc:Work
         rdf:about="">
        <dc:format>image/svg+xml</dc:format>
        <dc:type
           rdf:resource="http://purl.org/dc/dcmitype/StillImage" />
        <dc:title />
      </cc:Work>
    </rdf:RDF>
  </metadata>
  <defs
     id="defs10" />
  <sodipodi:namedview
     pagecolor="#ffffff"
     bordercolor="#666666"
     borderopacity="1"
     objecttolerance="10"
     gridtolerance="10"
     guidetolerance="10"
     inkscape:pageopacity="0"
     inkscape:pageshadow="2"
     inkscape:window-width="1920"
     inkscape:window-height="1056"
     id="namedview8"
     showgrid="true"
     inkscape:snap-intersection-paths="true"
     inkscape:object-paths="false"
     inkscape:zoom="11.313709"
     inkscape:cx="37.660117"
     inkscape:cy="32.190114"
     inkscape:window-x="0"
     inkscape:window-y="24"
     inkscape:window-maximized="1"
     inkscape:current-layer="svg2">
    <inkscape:grid
       type="xygrid"
       id="grid4140" />
  </sodipodi:namedview>
  <g
     transform="translate(-0.45762712,-1006.3622)"
     id="g4">
    <path
       style="fill:#4c7686"
       d="M 20 6 L 20 26.736328 A 4.136024 6.2040367 75 0 0 14.841797 26.451172 A 4.136024 6.2040367 75 0 0 9.9199219 32.052734 A 4.136024 6.2040367 75 0 0 16.982422 34.441406 A 4.136024 6.2040367 75 0 0 21.996094 29.634766 L 22 29.634766 L 22 14.380859 L 35 16.115234 L 35 31.984375 A 4.136024 6.2040367 75 0 0 29.841797 31.699219 A 4.136024 6.2040367 75 0 0 24.919922 37.300781 A 4.136024 6.2040367 75 0 0 31.982422 39.689453 A 4.136024 6.2040367 75 0 0 36.996094 34.880859 L 37 34.882812 L 37 8.2773438 L 20 6 z M 22 10.621094 L 35 12.355469 L 35 14.115234 L 22 12.380859 L 22 10.621094 z "
       transform="translate(0.45762712,1006.3622)"
       id="path6" />
  </g>
</svg>

<svg xmlns="http://www.w3.org/2000/svg" viewBox="0 0 48 48">
 <g transform="translate(-0.45762712,-1006.3622)">
  <path d="m 20 6 l 0 20.736 a 4.136 6.204 75 0 0 -5.158 -0.285 a 4.136 6.204 75 0 0 -4.922 5.602 a 4.136 6.204 75 0 0 7.06 2.389 a 4.136 6.204 75 0 0 5.01 -4.807 l 0.004 0 l 0 -15.254 l 13 1.734 l 0 15.869 a 4.136 6.204 75 0 0 -5.158 -0.285 a 4.136 6.204 75 0 0 -4.922 5.602 a 4.136 6.204 75 0 0 7.06 2.389 a 4.136 6.204 75 0 0 5.01 -4.809 l 0.004 0.002 l 0 -26.605 l -17 -2.277 z m 2 4.621 l 13 1.734 l 0 1.76 l -13 -1.734 l 0 -1.76 z" transform="translate(0.45762712,1006.3622)" style="fill:#4c7686"/>
 </g>
</svg>
